modules/stroke-7/icons/compass.svg

<?xml version="1.0" encoding="utf-8"?>
<!-- Generated by IcoMoon.io -->
<!DOCTYPE svg PUBLIC "-//W3C//DTD SVG 1.1//EN" "http://www.w3.org/Graphics/SVG/1.1/DTD/svg11.dtd">
<svg version="1.1" xmlns="http://www.w3.org/2000/svg" xmlns:xlink="http://www.w3.org/1999/xlink" width="32" height="32" viewBox="0 0 32 32">
<g id="icomoon-ignore">
</g>
<path d="M17.992 5.493c0.414-0.47 0.674-1.080 0.674-1.755 0-1.472-1.193-2.665-2.666-2.665s-2.666 1.193-2.666 2.665c0 0.675 0.259 1.285 0.674 1.755-6.12 0.957-10.803 6.251-10.803 12.64 0 7.067 5.729 12.795 12.795 12.795s12.795-5.728 12.795-12.795c0-6.389-4.683-11.683-10.803-12.64zM16 2.139c0.882 0 1.599 0.717 1.599 1.599s-0.717 1.599-1.599 1.599-1.599-0.717-1.599-1.599 0.717-1.599 1.599-1.599zM16 29.861c-6.467 0-11.729-5.261-11.729-11.729s5.261-11.729 11.729-11.729 11.729 5.261 11.729 11.729-5.261 11.729-11.729 11.729z" fill="#000000"></path>
<path d="M9.605 24.538l8.675-4.109 4.109-8.676-8.704 4.081-4.081 8.703zM14.247 17.15l2.721 2.721-5.138 2.433 2.417-5.155zM17.722 19.118l-2.721-2.721 5.155-2.417-2.434 5.139z" fill="#000000"></path>
</svg>

<svg xmlns="http://www.w3.org/2000/svg" width="32" height="32" viewBox="0 0 32 32"><path d="M17.992 5.493c.414-.47.674-1.08.674-1.755 0-1.472-1.193-2.665-2.666-2.665s-2.666 1.193-2.666 2.665c0 .675.259 1.285.674 1.755-6.12.957-10.803 6.251-10.803 12.64C3.205 25.2 8.934 30.928 16 30.928S28.795 25.2 28.795 18.133c0-6.389-4.683-11.683-10.803-12.64zM16 2.139c.882 0 1.599.717 1.599 1.599S16.882 5.337 16 5.337s-1.599-.717-1.599-1.599.717-1.599 1.599-1.599zm0 27.722c-6.467 0-11.729-5.261-11.729-11.729S9.532 6.403 16 6.403s11.729 5.261 11.729 11.729S22.468 29.861 16 29.861z"/><path d="M9.605 24.538l8.675-4.109 4.109-8.676-8.704 4.081-4.081 8.703zm4.642-7.388l2.721 2.721-5.138 2.433 2.417-5.155zm3.475 1.968l-2.721-2.721 5.155-2.417-2.434 5.139z"/></svg>
